svg/material-icons/auto_graph/materialiconsround/20px.svg

<svg xmlns="http://www.w3.org/2000/svg" width="20" height="20" viewBox="0 0 20 20"><path d="m12.05 9-.33-.72-.72-.33a.5.5 0 0 1 0-.91l.72-.33.33-.71a.5.5 0 0 1 .91 0l.33.72.71.33a.5.5 0 0 1 0 .91l-.72.33-.33.71c-.17.39-.73.39-.9 0zm-8.1 2 .33-.72.72-.33a.5.5 0 0 0 0-.91l-.72-.32L3.95 8a.492.492 0 0 0-.9 0l-.33.72-.72.33c-.39.17-.39.73 0 .9l.72.33.33.72c.17.39.73.39.9 0zm3.5-4 .49-1.06L9 5.45a.5.5 0 0 0 0-.91l-1.06-.48L7.45 3a.492.492 0 0 0-.9 0l-.49 1.06L5 4.55c-.39.17-.39.73 0 .9l1.06.49L6.55 7c.17.39.73.39.9 0zm10.99 0a.747.747 0 0 0-1.06.06l-5.11 5.75-2.56-2.56a.996.996 0 0 0-1.41 0l-4.76 4.77c-.29.29-.29.77 0 1.06.29.29.77.29 1.06 0L9 11.67l2.58 2.58c.41.41 1.07.39 1.45-.04l5.47-6.15c.28-.31.25-.79-.06-1.06z"/></svg>

<svg xmlns="http://www.w3.org/2000/svg" enable-background="new 0 0 20 20" height="20" viewBox="0 0 20 20" width="20"><rect fill="none" height="20" width="20"/><path d="M12.05,9l-0.33-0.72L11,7.95c-0.39-0.18-0.39-0.73,0-0.91l0.72-0.33L12.05,6c0.18-0.39,0.73-0.39,0.91,0l0.33,0.72L14,7.05 c0.39,0.18,0.39,0.73,0,0.91l-0.72,0.33L12.95,9C12.78,9.39,12.22,9.39,12.05,9z M3.95,11l0.33-0.72L5,9.95 c0.39-0.18,0.39-0.73,0-0.91L4.28,8.72L3.95,8C3.78,7.61,3.22,7.61,3.05,8L2.72,8.72L2,9.05C1.61,9.22,1.61,9.78,2,9.95l0.72,0.33 L3.05,11C3.22,11.39,3.78,11.39,3.95,11z M7.45,7l0.49-1.06L9,5.45c0.39-0.18,0.39-0.73,0-0.91L7.94,4.06L7.45,3 C7.28,2.61,6.72,2.61,6.55,3L6.06,4.06L5,4.55C4.61,4.72,4.61,5.28,5,5.45l1.06,0.49L6.55,7C6.72,7.39,7.28,7.39,7.45,7z M18.44,7 c-0.31-0.28-0.78-0.25-1.06,0.06l-5.11,5.75l-2.56-2.56c-0.39-0.39-1.02-0.39-1.41,0l-4.76,4.77c-0.29,0.29-0.29,0.77,0,1.06 c0.29,0.29,0.77,0.29,1.06,0L9,11.67l2.58,2.58c0.41,0.41,1.07,0.39,1.45-0.04l5.47-6.15C18.78,7.75,18.75,7.27,18.44,7z"/></svg>
